!!!SOCIAL_FUNCTION:	miscellaneous dance songs
!!!PDT:	1932
!!!OTL: No_114_Rabbit_Dance_Song.krn
!!!REG: Wisconsin
!!!LANG: Non-Tone
!!!LING_GROUP: Algonquin
**kern
*staff1
=1-
=
*clefF4
*k[f#]
*M2/4
4d\
4d\
=2
8.c\L
16B\Jk
4B\
=3||
*M3/4
16G\LK
8.G\J
8.G\L
16G\Jk
4G\
=4||
*M2/4
4B\
4B\
=5
8.G\L
16G\Jk
4G\
=6||
*M3/4
16B\LK
8.B\J
8.G\L
16G\Jk
8G\
8r
=7||
*M2/4
4B\
4G\
=8
8.G\L
16G\Jk
4G\
=9||
*M3/4
16B\LK
8.B\J
8.G\L
16G\Jk
8G\
8r
=10
*M2/4
4B\
4G\
=11
8.G\L
16G\Jk
4G\
=12||
*M3/4
16B\LK
8.B\J
8.G\L
16G\Jk
8G\
8r
==:|!
*-
